build/img/icon-category/icon-category-18.svg

<svg width="24" height="25" viewBox="0 0 24 25" fill="none" xmlns="http://www.w3.org/2000/svg">
<path d="M11.9998 11.993C13.4549 11.993 14.6344 10.8243 14.6344 9.38276C14.6344 7.94117 13.4549 6.77254 11.9998 6.77254C10.5448 6.77254 9.36523 7.94117 9.36523 9.38276C9.36523 10.8243 10.5448 11.993 11.9998 11.993Z" fill="#2C8ECC"/>
<path d="M19.4521 16.7655C21.4284 14.8075 22.5387 12.1518 22.5387 9.38275C22.5387 6.61369 21.4284 3.95804 19.4521 2" stroke="#2C8ECC" stroke-width="2" stroke-miterlimit="10" stroke-linecap="square"/>
<path d="M16.4717 13.8128C17.0589 13.2311 17.5248 12.5404 17.8426 11.7803C18.1604 11.0202 18.324 10.2055 18.324 9.38274C18.324 8.55998 18.1604 7.74528 17.8426 6.98516C17.5248 6.22504 17.0589 5.5344 16.4717 4.95267" stroke="#2C8ECC" stroke-width="2" stroke-miterlimit="10" stroke-linecap="square"/>
<path d="M4.54844 16.7655C2.57217 14.8075 1.46191 12.1518 1.46191 9.38275C1.46191 6.61369 2.57217 3.95804 4.54844 2" stroke="#2C8ECC" stroke-width="2" stroke-miterlimit="10" stroke-linecap="square"/>
<path d="M7.5291 13.8128C6.94184 13.2311 6.476 12.5404 6.15817 11.7803C5.84034 11.0202 5.67676 10.2055 5.67676 9.38274C5.67676 8.55998 5.84034 7.74528 6.15817 6.98516C6.476 6.22504 6.94184 5.5344 7.5291 4.95267" stroke="#2C8ECC" stroke-width="2" stroke-miterlimit="10" stroke-linecap="square"/>
<path d="M12 9.38272V24" stroke="#2C8ECC" stroke-width="2" stroke-miterlimit="10" stroke-linecap="square"/>
<path d="M7.78418 24H16.2148" stroke="#2C8ECC" stroke-width="2" stroke-miterlimit="10" stroke-linecap="square"/>
</svg>

<svg width="24" height="25" fill="none" xmlns="http://www.w3.org/2000/svg"><path d="M12 11.993c1.455 0 2.634-1.169 2.634-2.61 0-1.442-1.18-2.61-2.634-2.61-1.455 0-2.635 1.168-2.635 2.61 0 1.441 1.18 2.61 2.635 2.61z" fill="#2C8ECC"/><path d="M19.452 16.765a10.392 10.392 0 003.087-7.382c0-2.77-1.11-5.425-3.087-7.383m-2.98 11.813a6.261 6.261 0 001.37-2.033 6.215 6.215 0 00-1.37-6.827M4.548 16.765a10.392 10.392 0 01-3.086-7.382c0-2.77 1.11-5.425 3.086-7.383M7.53 13.813a6.26 6.26 0 01-1.372-2.033A6.214 6.214 0 017.53 4.953M12 9.383V24m-4.216 0h8.43" stroke="#2C8ECC" stroke-width="2" stroke-miterlimit="10" stroke-linecap="square"/></svg>
